packages/dnb-ui-lib/assets/icons/car_1.svg

<svg width="16" height="16" viewBox="0 0 16 16" fill="none" xmlns="http://www.w3.org/2000/svg">
<path d="M1.93333 12.666C1.93333 12.9135 2.03167 13.1509 2.2067 13.3259C2.38173 13.501 2.61913 13.5993 2.86667 13.5993C3.1142 13.5993 3.3516 13.501 3.52663 13.3259C3.70167 13.1509 3.8 12.9135 3.8 12.666V11.7331M1.93333 12.666C1.93333 12.4184 1.93333 11.7332 1.93333 11.7332M1.93333 12.666V11.7332M14.0667 11.7326C14.3142 11.7326 14.5516 11.6343 14.7266 11.4592C14.9017 11.2842 15 11.0468 15 10.7993V9.86595V8.46657C14.9999 8.30376 14.9646 8.1446 14.8982 7.99929M14.0667 11.7326L12.2 11.7327M14.0667 11.7326V12.666C14.0667 12.9135 13.9683 13.1509 13.7933 13.3259C13.6183 13.501 13.3809 13.5993 13.1333 13.5993C12.8858 13.5993 12.6484 13.501 12.4734 13.3259C12.2983 13.1509 12.2 12.9135 12.2 12.666V11.7327M2.86667 6.13324L13.1333 6.13635M2.86667 6.13324L1.93333 5.1999H1M2.86667 6.13324L1.32978 7.67012C1.23371 7.76626 1.1568 7.87795 1.10149 7.99929M2.86667 6.13324L3.93876 3.27412C4.03509 3.0174 4.20744 2.79618 4.4328 2.63997C4.65816 2.48377 4.9258 2.40002 5.2 2.3999H10.8C11.0742 2.40002 11.3418 2.48377 11.5672 2.63997C11.7926 2.79618 11.9649 3.0174 12.0612 3.27412L13.1333 6.13635M1.93333 11.7332C1.6858 11.7332 1.4484 11.6349 1.27337 11.4599C1.09833 11.2848 1 11.0474 1 10.7999V9.86595V8.46657C1.00001 8.30378 1.03525 8.14462 1.10149 7.99929M1.93333 11.7332L3.8 11.7331M13.1333 6.13635L14.6702 7.67075C14.7661 7.76671 14.8429 7.87819 14.8982 7.99929M13.1333 6.13635L14.0667 5.1999H15M12.1264 8.83431L12.0467 8.67502C12.0112 8.60383 11.9945 8.52476 11.9981 8.4453C12.0018 8.36584 12.0256 8.28862 12.0674 8.22096C12.1092 8.15329 12.1676 8.09741 12.2371 8.05862C12.3065 8.01983 12.3847 7.99941 12.4642 7.99929H14.8982M3.53577 7.99929C3.61531 7.99941 3.6935 8.01983 3.76295 8.05862C3.83239 8.09741 3.89078 8.15329 3.93259 8.22096C3.9744 8.28862 3.99824 8.36584 4.00186 8.4453C4.00548 8.52476 3.98876 8.60383 3.95328 8.67502L3.87363 8.83431M3.53577 7.99929C2.88806 7.99929 1.7492 7.99929 1.10149 7.99929M3.53577 7.99929H1.10149M3.8 11.7331L12.2 11.7327" stroke="black" stroke-width="1.5" stroke-linecap="round" stroke-linejoin="round"/>
</svg>

<svg width="16" height="16" viewBox="0 0 16 16" fill="none" xmlns="http://www.w3.org/2000/svg"><path d="M1.933 12.666a.933.933 0 001.867 0v-.933m-1.867.933v-.933m0 .933v-.933m12.134 0a.933.933 0 00.933-.934V8.466c0-.162-.035-.321-.102-.467m-.831 3.734H12.2m1.867 0v.933a.933.933 0 01-1.867 0v-.933m-9.333-5.6l10.266.003M2.867 6.133L1.933 5.2H1m1.867.933L1.33 7.67A1.127 1.127 0 001.1 8m1.766-1.867l1.072-2.859A1.348 1.348 0 015.2 2.4h5.6a1.348 1.348 0 011.261.874l1.072 2.862m-11.2 5.597A.933.933 0 011 10.8V8.466c0-.162.035-.321.101-.467m.832 3.734H3.8m9.333-5.597l1.537 1.535c.096.096.173.207.228.328m-1.765-1.863l.934-.936H15m-2.874 3.634l-.08-.159a.467.467 0 01.418-.676h2.434M3.536 8a.467.467 0 01.417.676l-.08.16M3.536 8H1.1m2.435 0H1.1m2.7 3.733h8.4" stroke="#000" stroke-width="1.5" stroke-linecap="round" stroke-linejoin="round"/></svg>
